X: 97
T: the Silver Spear
R: reel
Z: 2012 John Chambers <jc@trillian.mit.edu>
B: "100 Essential Irish Session Tunes" 1995 Dave Mallinson, ed.
M: 4/4
L: 1/8
K: D
G |\
"D"FA~A2 BAFA | dfed "G"BdAG | "D"FA~A2 BAFA | dfed "G"B2AG |\
"D"FA~A2 BAFA | dfed "D7"Bdef | "G"g3e "D"f3e | "G"dfed "A7"B2A :|
|: e |\
"D"faaf bfaf | "G"gfed "Em"Bcde | "D"faaf bfaf | "Em"gfed "G"B2Ae |\
"D"faaf bfaf | "D"gfed "D7"Bdef | "G"g3e "D"f3e | "Em"dfed "A7"B2A :|

%%sep 2 1 500
%%sep 1 1 500

